X: 07101
T: Renn's Hornpipe
C: Bob McQuillen 7 Feb 89
B: Bob's Note Book 7 #101
%R: hornpipe, reel
Z: 2019 John Chambers <jc:trillian.mit.edu>
M: C
L: 1/8
K: D
AG \
| FABA dfaf | bafd edfd | BdgB Adfd | BdAF E2AG |
| FABA dfaf | bafd edfd | Bdgb afeg | f2d2 d2 :|
|: cd \
| efgf eBAG | FAde dAFA | dfaf bafd | BdAF E2cd |
| efgf eBAG | FAde dAFA | dfaf gecd | e2d2 d2 :|
%%begintext align
%% For Renn Tolman, of
%% Homer, Alaska. Born with a silver pennywhistle
%% in his mouth, Renn grew up in Nelson, N.H., where
%% he learned to play jigs and reels at the feet of his
%% dad, Newt Tolman, who was a highly-acclaimed flute
%% player throughout New England. Hope you like this tune, Renn!
%%endtext

%%sep 1 1 500

%%sep 1 1 500

